**kern	**kern	**dynam
*part1	*part1	*part1
*staff2	*staff1	*
*I"Piano	*	*
*clefF4	*clefG2	*
*k[b-e-]	*k[b-e-]	*
*M3/4	*M3/4	*
=1	=1	=1
[2.GG	8GL<	p
.	8B-<	.
.	8d	.
.	8g	.
.	8B-	.
.	8dJ	.
=	=	=
2.GG]	8B-L<	.
.	8d	.
.	8g	.
.	8b-	.
.	8d	.
.	8gJ	.
=	=	=
2.GG	8B-L<	.
.	8e-	.
.	8g	.
.	8b-	.
.	8e-	.
.	8gJ	.
=	=	=
2.G	8B-L	.
.	8en	.
.	8g	.
.	8b-	.
.	8e	.
.	8gJ	.
=	=	=
2.F#X	8AL	.
.	8d	.
.	8f#X	.
.	8a	.
.	8d	.
.	8f#J	.
=	=	=
2.D	8AL	.
.	8d	.
.	8f#X	.
.	8a	.
.	8d	.
.	8f#J	.
=	=	=
2.G	8B-L	.
.	8d	.
.	8g	.
.	8b-	.
.	8d	.
.	8gJ	.
=	=	=
2.BB-	8GL	.
.	8B-	.
.	8d	.
.	8g	.
.	8B-	.
.	8dJ	.
=	=	=
*-	*-	*-
!!!system-decoration: {(s1,s2)}
!!!RDF**kern: < = below
